img/icones/estoque.svg

<svg width="16" height="16" viewBox="0 0 16 16" fill="none" xmlns="http://www.w3.org/2000/svg">
<g clip-path="url(#clip0_143_43)">
<path d="M1.33302 3.99999C1.69902 3.99999 1.99902 3.69999 1.99902 3.33399V2.66699C1.9998 2.49034 2.07033 2.32114 2.19525 2.19622C2.32016 2.07131 2.48936 2.00078 2.66602 1.99999H3.33302C3.69902 1.99999 3.99902 1.69999 3.99902 1.33399C3.99902 0.966992 3.69902 0.666992 3.33302 0.666992H2.66602C1.55902 0.666992 0.666016 1.55999 0.666016 2.66699V3.33399C0.666016 3.69999 0.966016 3.99999 1.33302 3.99999ZM3.33302 14H2.66602C2.48945 13.9995 2.32025 13.9292 2.19531 13.8044C2.07037 13.6796 1.99981 13.5106 1.99902 13.334V12.667C1.98767 12.498 1.91252 12.3395 1.78877 12.2238C1.66503 12.1081 1.50194 12.0437 1.33252 12.0437C1.1631 12.0437 1.00001 12.1081 0.876261 12.2238C0.752516 12.3395 0.677363 12.498 0.666016 12.667V13.334C0.666016 14.441 1.55902 15.334 2.66602 15.334H3.33302C3.50205 15.3226 3.66047 15.2475 3.77618 15.1237C3.8919 15 3.95627 14.8369 3.95627 14.6675C3.95627 14.4981 3.8919 14.335 3.77618 14.2112C3.66047 14.0875 3.50205 14.0123 3.33302 14.001V14ZM13.333 0.666992H12.667C12.3 0.666992 12 0.966992 12 1.33399C12 1.69999 12.3 1.99999 12.667 1.99999H13.333C13.7 1.99999 14 2.29999 14 2.66699V3.33399C14 3.69999 14.3 3.99999 14.667 3.99999C15.033 3.99999 15.333 3.69999 15.333 3.33399V2.66699C15.333 1.55999 14.44 0.666992 13.333 0.666992ZM14.667 12C14.3 12 14 12.3 14 12.667V13.334C14 13.701 13.7 14.001 13.333 14.001H12.667C12.3 14.001 12 14.301 12 14.667C12 15.034 12.3 15.334 12.667 15.334H13.333C14.44 15.334 15.333 14.441 15.333 13.334V12.667C15.333 12.3 15.033 12.001 14.667 12.001V12ZM12.665 9.91399V6.08699C12.665 5.60699 12.412 5.16699 11.999 4.93399L8.66502 3.01399C8.46292 2.89541 8.23284 2.83289 7.99852 2.83289C7.76419 2.83289 7.53412 2.89541 7.33202 3.01399L3.99902 4.92599C3.58502 5.16599 3.33202 5.60599 3.33202 6.08599V9.91299C3.33202 10.393 3.58502 10.833 3.99902 11.066L7.33202 12.986C7.53412 13.1046 7.76419 13.1671 7.99852 13.1671C8.23284 13.1671 8.46292 13.1046 8.66502 12.986L12 11.067C12.2033 10.9511 12.372 10.7832 12.489 10.5806C12.6061 10.378 12.6671 10.148 12.666 9.91399H12.665ZM7.33202 11.447L4.66502 9.91399V6.82699L7.33202 8.37999V11.447ZM7.99902 7.22699L5.35902 5.68699L7.99902 4.16699L10.639 5.68699L7.99902 7.22699ZM11.332 9.91399L8.66502 11.447V8.37999L11.332 6.82699V9.91399Z" fill="#9C9C9C"/>
</g>
<defs>
<clipPath id="clip0_143_43">
<rect width="16" height="16" fill="white"/>
</clipPath>
</defs>
</svg>

<svg width="16" height="16" fill="none" xmlns="http://www.w3.org/2000/svg">
  <path d="M1.333 4c.366 0 .666-.3.666-.666v-.667A.67.67 0 0 1 2.666 2h.667c.366 0 .666-.3.666-.666 0-.367-.3-.667-.666-.667h-.667c-1.107 0-2 .893-2 2v.667c0 .366.3.666.667.666Zm2 10h-.667a.669.669 0 0 1-.667-.666v-.667a.668.668 0 0 0-1.333 0v.667c0 1.107.893 2 2 2h.667a.668.668 0 0 0 0-1.333V14Zm10-13.333h-.666c-.367 0-.667.3-.667.667 0 .366.3.666.667.666h.666c.367 0 .667.3.667.667v.667c0 .366.3.666.667.666.366 0 .666-.3.666-.666v-.667c0-1.107-.893-2-2-2ZM14.667 12c-.367 0-.667.3-.667.667v.667c0 .367-.3.667-.667.667h-.666c-.367 0-.667.3-.667.666 0 .367.3.667.667.667h.666c1.107 0 2-.893 2-2v-.667c0-.367-.3-.666-.666-.666V12Zm-2.002-2.086V6.087c0-.48-.253-.92-.666-1.153l-3.334-1.92a1.317 1.317 0 0 0-1.333 0L3.999 4.926c-.414.24-.667.68-.667 1.16v3.827c0 .48.253.92.667 1.153l3.333 1.92a1.317 1.317 0 0 0 1.333 0L12 11.067a1.32 1.32 0 0 0 .666-1.153h-.001Zm-5.333 1.533L4.665 9.914V6.827L7.332 8.38v3.067Zm.667-4.22-2.64-1.54 2.64-1.52 2.64 1.52-2.64 1.54Zm3.333 2.687-2.667 1.533V8.38l2.667-1.553v3.087Z" fill="#9C9C9C"/>
</svg>
